X:1
T:Funkerlied
T:Funkerlied
T:„Alle aufgepaßt“
L:1/8
Q:1/4=112
M:4/4
K:G
V:1 treble nm="Piano" snm="Pno."
V:1
 D>D | G2 G2 G2 GA | B2 B2 B2 GB | A2 D2 A2 D2 | G4 z2 D>D | G2 G2 G2 GA | B2 B2 B2"_den" B2{BB} | %7
w: 1.Al le|auf- ge- paßt! Al- le|Tritt ge- faßt! Wir mar-|schiern in Reih und|1.Glied. Al- le|auf ge- paßt! Al- le|Tritt ge- faßt! Kennt|
w: 2.Ist der|Dienst auch schwer, Drückt das|Schieß- ge- wehr, wir ver-|sa- gen- al- le|2.nicht; ob auch|smerzt die Hand, ob auch|knirscht der Sand, der|
w: 3.Ist der|Sonn- tag da, geht es|mit Hur- ra in das|Städ- te- lein hin-|3.ein. Je- der|zei- get dann, dass er|tan- zen kann mit|
 A3 B A2 G2 | F4 z2 D>D | A2 ^G2 A2 DD | B>B B^A B2 G2 | E3 F G2 B2 | A2 z4 B2 | A3 G F2 E2 | %14
w: ihr das Fun- ker-|1.lied? Von der|Fun- ker- ei und der|Lie- be ne- ben- bei singt|al- le fröh- lich|1.mit, singt,|Ka- me- ra- den|
w: Schweiß strömt vom Ge-|2.sicht. Dann er-|tönt ein Lied wie von|selbst durch Reih und Glied, singt|al- le fröh- lich|2.mit, singt,|Ka- me- ra- den|
w: schö- nen Mäg- de-|3.lein. Wenn die|Gei- ge singt und ein|Wal- zer- lied er- klingt, dann|sin- gen al- le|3.mit, dann,|sin- gen al- le|
 D2 z4 GA | BBBB BBBA | G>D DD D2 GG | A2 d2 d3 c | c4 B2 Bc | ddBB GGBB | A>A AB A2 A2 | %21
w: mit:} in dem|Städt- chen wohnt ein Mäd- chen und das|Lie- ben wir so sehr, denn es|hat zwei blau- e|Au- gen, blon- de|haa- re, sieb- zehn Jah- re, sag', was|wol- len- wir noch mehr, wir|
w: mit:} * *|||||||
w: mit:} * *|||||||
 B2 B2 z2 ^c2 | d2 d2 z2 |: Bd | c2 A2 E2 F2 | G>G GB D2 Bd | c2 A2 E2 F2 | GFGB D2 D2 | %28
w: Fun- ker- sol-|da- ten?|Denn wir|sind ja von der|L. N. Kom- pa- nie, und wir|ge- ben stets: „Ich|lie- be lie- be Sie.“ Und|
w: |||||||
w: |||||||
 G2 G2 B>A GF | E2 z4 c2 | B>G GA B2 A2 | G2 z4 :| %32
w: al- le Mä- del hö- ren|mit. Di-|da di did, di- da di|did!|
w: ||||
w: ||||

